X:67
T:Payne's 5th Sett Of Quadrilles,2. Le4.067
B:L.Leadley MS#4 c1850
Z:Village Music Project, 2016 Steve Mansfield
M:2/4
L:1/8
Q:2/4=60
K:C
G | c>dec | dd/e/ fd | cdec | BABG |
c>dec | dd/e/ fd | BABG | c2 zH ||
|: G | d>eff | egec | BABG | cdec |
dd/e/ ff | egec | BABG | c2 z :|

